svgs/solid/crop.svg

<svg xmlns="http://www.w3.org/2000/svg" viewBox="0 0 512 512"><!--! Font Awesome Free 6.6.0 by @fontawesome - https://fontawesome.com License - https://fontawesome.com/license/free (Icons: CC BY 4.0, Fonts: SIL OFL 1.1, Code: MIT License) Copyright 2024 Fonticons, Inc. --><path d="M448 109.3l54.6-54.6c12.5-12.5 12.5-32.8 0-45.3s-32.8-12.5-45.3 0L402.7 64 160 64l0 64 178.7 0L128 338.7 128 32c0-17.7-14.3-32-32-32S64 14.3 64 32l0 32L32 64C14.3 64 0 78.3 0 96s14.3 32 32 32l32 0 0 256c0 35.3 28.7 64 64 64l224 0 0-64-178.7 0L384 173.3 384 480c0 17.7 14.3 32 32 32s32-14.3 32-32l0-32 32 0c17.7 0 32-14.3 32-32s-14.3-32-32-32l-32 0 0-274.7z"/></svg>

<svg xmlns="http://www.w3.org/2000/svg" viewBox="0 0 512 512"><!--! Font Awesome Free 6.5.2 by @fontawesome - https://fontawesome.com License - https://fontawesome.com/license/free (Icons: CC BY 4.0, Fonts: SIL OFL 1.1, Code: MIT License) Copyright 2024 Fonticons, Inc. --><path d="M448 109.3l54.6-54.6c12.5-12.5 12.5-32.8 0-45.3s-32.8-12.5-45.3 0L402.7 64 160 64v64l178.7 0L128 338.7V32c0-17.7-14.3-32-32-32S64 14.3 64 32V64H32C14.3 64 0 78.3 0 96s14.3 32 32 32H64V384c0 35.3 28.7 64 64 64H352V384H173.3L384 173.3 384 480c0 17.7 14.3 32 32 32s32-14.3 32-32V448h32c17.7 0 32-14.3 32-32s-14.3-32-32-32H448l0-274.7z"/></svg>
